X:3
T:Gruss aus dem Muotatal CGF 5- chords
M:3/4
L:1/8
K:Cmaj%%MIDI gchordon
"C"EG cE Gc | EG cE Gc | "G7"FG BF GB | TA4G2 | FG BF GB | TA4G2 | "C"EG cE Gc | TA4G2 | 
EG cE Gc | EG cE Gc | "G7"FG BF GB | TA4G2 | FG dG Bd | !>!e4B2 | "C"c2 Bc ed | c2z2dd |: [K:Gmaj] 
"G"Td4B2 | G2 B,D GB | "D7"c2c2F2 | z2 dd dd | Td4c2 |1 F2 DF Ac | "G"B2B2G2 | z2dd dd :|2 
"D7"fe dc BA | "G"G2 FG Bd | g2z2GG || [K:Cmaj] "C"Gc c3G | "G7"GB BG F2 | GB B3G | "C"Gc cG E2 | Gc c3G | "G7"GB BG F2 | 
AG ^FG AB | "C"c2z2Ac || [K:Fmaj] "F"cf f3c | "C7"ce e3c | cd d3c | "F"A3f ed | "C7"ce e3c | B3f ed | "F"cf f3c | 
A4 cc | cf f3c | "C7"ce e3c | cd d3c | "F"A3f ed | ce e3d | "C7"cd cB AG | "F"F2A2c2 | f2z2z2 |] 

